X: 0131
T: Long Live the Queen - 8x32R
P: Long Live the Queen
C: Nam Main
B: Miss Milligan's Miscellany v.1 #0131
B: Originally Ours v.1 p.176 #MMM-0131
Z: 2020 John Chambers <jc:trillian.mit.edu>
M: 4/4
L: 1/8
R: reel
K: A
%
e2 :|\
"A"[a4e2c2A2] "E7"[e3G3]d | "A"[c6E6] A2 | "D"Bcde "D#/B7"fgab | "E"g2e2- "G#/E7"e^efg |\
"A"a2ec "G#/E7"f2dB | "A"e2cA "G#/E7"GABc | "D"defg "E7"abc'd' | "A"e'6 "E7"e2 ||
"E7"d3c "G#/E7"Bcde | "A"c2 A4 e2 | "D"f2ed "C#/A"efga | "E7"b6 e2 |\
"A"a2ec "F#/D"f2dB | "E/A"e2cA "E7"GABe | "D"f4 "E7"g3f |1 "A"[a6e6c6A6] "E7"e2 :|2 "A"[a4e4c4A4] [a4e4c4A4] |]
